svgs/sharp-light/grid-4.svg

<svg xmlns="http://www.w3.org/2000/svg" viewBox="0 0 448 512"><!--! Font Awesome Pro 6.6.0 by @fontawesome - https://fontawesome.com License - https://fontawesome.com/license (Commercial License) Copyright 2024 Fonticons, Inc. --><path d="M24 56l0 41.6 41.6 0 0-41.6L24 56zm0 119.5l0 41.6 41.6 0 0-41.6-41.6 0zM0 270.9l24 0 41.6 0 24 0 0 24 0 41.6 0 24-24 0-41.6 0-24 0 0-24 0-41.6 0-24zm65.6 65.6l0-41.6-41.6 0 0 41.6 41.6 0zM24 414.4L24 456l41.6 0 0-41.6-41.6 0zM89.6 32l0 24 0 41.6 0 24-24 0-41.6 0-24 0 0-24L0 56 0 32l24 0 41.6 0 24 0zm0 119.5l0 24 0 41.6 0 24-24 0-41.6 0-24 0 0-24 0-41.6 0-24 24 0 41.6 0 24 0zm0 238.9l0 24 0 41.6 0 24-24 0L24 480 0 480l0-24 0-41.6 0-24 24 0 41.6 0 24 0zM143.5 56l0 41.6 41.6 0 0-41.6-41.6 0zm0 119.5l0 41.6 41.6 0 0-41.6-41.6 0zm-24 95.5l24 0 41.6 0 24 0 0 24 0 41.6 0 24-24 0-41.6 0-24 0 0-24 0-41.6 0-24zm65.6 65.6l0-41.6-41.6 0 0 41.6 41.6 0zm-41.6 77.9l0 41.6 41.6 0 0-41.6-41.6 0zM209.1 32l0 24 0 41.6 0 24-24 0-41.6 0-24 0 0-24 0-41.6 0-24 24 0 41.6 0 24 0zm0 119.5l0 24 0 41.6 0 24-24 0-41.6 0-24 0 0-24 0-41.6 0-24 24 0 41.6 0 24 0zm0 238.9l0 24 0 41.6 0 24-24 0-41.6 0-24 0 0-24 0-41.6 0-24 24 0 41.6 0 24 0zM304.5 56l-41.6 0 0 41.6 41.6 0 0-41.6zm0 119.5l-41.6 0 0 41.6 41.6 0 0-41.6zM238.9 294.9l0-24 24 0 41.6 0 24 0 0 24 0 41.6 0 24-24 0-41.6 0-24 0 0-24 0-41.6zm24 41.6l41.6 0 0-41.6-41.6 0 0 41.6zm41.6 77.9l-41.6 0 0 41.6 41.6 0 0-41.6zm0-382.4l24 0 0 24 0 41.6 0 24-24 0-41.6 0-24 0 0-24 0-41.6 0-24 24 0 41.6 0zm0 119.5l24 0 0 24 0 41.6 0 24-24 0-41.6 0-24 0 0-24 0-41.6 0-24 24 0 41.6 0zm0 238.9l24 0 0 24 0 41.6 0 24-24 0-41.6 0-24 0 0-24 0-41.6 0-24 24 0 41.6 0zM382.4 56l0 41.6 41.6 0L424 56l-41.6 0zm0 119.5l0 41.6 41.6 0 0-41.6-41.6 0zm-24 95.5l24 0 41.6 0 24 0 0 24 0 41.6 0 24-24 0-41.6 0-24 0 0-24 0-41.6 0-24zM424 336.5l0-41.6-41.6 0 0 41.6 41.6 0zm-41.6 77.9l0 41.6 41.6 0 0-41.6-41.6 0zM448 32l0 24 0 41.6 0 24-24 0-41.6 0-24 0 0-24 0-41.6 0-24 24 0L424 32l24 0zm0 119.5l0 24 0 41.6 0 24-24 0-41.6 0-24 0 0-24 0-41.6 0-24 24 0 41.6 0 24 0zm0 238.9l0 24 0 41.6 0 24-24 0-41.6 0-24 0 0-24 0-41.6 0-24 24 0 41.6 0 24 0z"/></svg>

<svg xmlns="http://www.w3.org/2000/svg" viewBox="0 0 448 512"><!--! Font Awesome Pro 6.5.2 by @fontawesome - https://fontawesome.com License - https://fontawesome.com/license (Commercial License) Copyright 2024 Fonticons, Inc. --><path d="M24 56V97.6H65.6V56H24zm0 119.5v41.6H65.6V175.5H24zM0 270.9H24 65.6h24v24 41.6 24h-24H24 0v-24V294.9v-24zm65.6 65.6V294.9H24v41.6H65.6zM24 414.4V456H65.6V414.4H24zM89.6 32V56 97.6v24h-24H24 0v-24V56 32H24 65.6h24zm0 119.5v24 41.6 24h-24H24 0v-24V175.5v-24H24 65.6h24zm0 238.9v24V456v24h-24H24 0V456 414.4v-24H24 65.6h24zM143.5 56V97.6h41.6V56H143.5zm0 119.5v41.6h41.6V175.5H143.5zm-24 95.5h24 41.6 24v24 41.6 24h-24H143.5h-24v-24V294.9v-24zm65.6 65.6V294.9H143.5v41.6h41.6zm-41.6 77.9V456h41.6V414.4H143.5zM209.1 32V56 97.6v24h-24H143.5h-24v-24V56 32h24 41.6 24zm0 119.5v24 41.6 24h-24H143.5h-24v-24V175.5v-24h24 41.6 24zm0 238.9v24V456v24h-24H143.5h-24V456 414.4v-24h24 41.6 24zM304.5 56H262.9V97.6h41.6V56zm0 119.5H262.9v41.6h41.6V175.5zM238.9 294.9v-24h24 41.6 24v24 41.6 24h-24H262.9h-24v-24V294.9zm24 41.6h41.6V294.9H262.9v41.6zm41.6 77.9H262.9V456h41.6V414.4zm0-382.4h24V56 97.6v24h-24H262.9h-24v-24V56 32h24 41.6zm0 119.5h24v24 41.6 24h-24H262.9h-24v-24V175.5v-24h24 41.6zm0 238.9h24v24V456v24h-24H262.9h-24V456 414.4v-24h24 41.6zM382.4 56V97.6H424V56H382.4zm0 119.5v41.6H424V175.5H382.4zm-24 95.5h24H424h24v24 41.6 24H424 382.4h-24v-24V294.9v-24zM424 336.5V294.9H382.4v41.6H424zm-41.6 77.9V456H424V414.4H382.4zM448 32V56 97.6v24H424 382.4h-24v-24V56 32h24H424h24zm0 119.5v24 41.6 24H424 382.4h-24v-24V175.5v-24h24H424h24zm0 238.9v24V456v24H424 382.4h-24V456 414.4v-24h24H424h24z"/></svg>
